public/showcase/resources/images/home/ford.svg

<svg height="32" viewBox="0 0 77 32" width="77" xmlns="http://www.w3.org/2000/svg" xmlns:xlink="http://www.w3.org/1999/xlink"><mask id="a" fill="#fff"><path d="m76.0791985 31.09632h-76.0791985v-31.095808h76.0791985z" fill="none"/></mask><path d="m35.7999062 10.698752c.1457076-.16.3921076-.63616.3435384-.9536-.0236923-.15872-.0971384-.3456-.2700923-.31872-.3696.07808-.5899385.26624-.6870769.66176-.1243846.42368-.0734462.7168 0 1.03424 0 0 .2440308.02688.6136308-.42368m19.3566153 10.2592c1.0554923-.05248 2.9923385-2.22592 3.4602616-2.75712.0971384-.13312.2700923-.36992.3648615-.36992.0995077 0 .2961539.10496.2961539.2624 0 .10752-.2203385.5056-.3909231.74368-.9832308 1.32608-2.6014154 3.3664-4.4423077 3.41888-.9062308 0-1.2497692-.39552-1.3741539-1.1648-.4158.3968-1.8397076 1.08672-3.2884923 1.08672-1.2023846-.02688-1.694-.79488-1.9368461-1.40416-.2227077-.50432-.3186616-1.24672-.1468923-1.98912-.6633846.3712-1.2770154.42368-2.1595539.39808-1.0294307-.02688-1.6679384-.5312-1.9854154-1.82784-1.1786923 2.3296-1.2284461 2.41152-2.4296461 4.84864h-2.0872923l2.6748615-4.90496c.3447231-.66048.5164923-1.1904.6373231-1.74848.0746308-.31744-.1457077-.60928-.4655538-.63488-.3411693 0-.9062308.36992-1.4476.928 0 0-1.3753385 1.59104-2.3798924 3.20512-.9559846 1.53856-2.6002307 3.29088-4.3901846 3.29088-1.3018923 0-2.4805846-.77056-2.7234307-2.25536 0 0-.1243847.3456-1.2770154 1.05984-.0983231.05248-.3435385.2112-.4169846.15872-.2215231-.2112-.3423539-.47744-.3672308-.66304.0734461.0256.2203385-.10496.6858923-.50304.9086-.74368 1.1052462-1.3248 1.1052462-1.3248.221523-.5056.6136307-1.2992.883723-1.856.7344616-1.59104 2.0091077-3.20768 4.0952154-3.28704.3447231 0 .4418616.15872.5153077.29184.1978308.16.1243846.47616.1243846.47616-1.4724769.23808-2.4794 1.16736-3.0918461 2.06848-.3684154.58368-.7593385 1.536-.8351539 2.2272-.1457077 1.19296.3707846 1.98912 1.1289385 2.17344 1.4227231.23808 2.6002308-.87424 3.5348923-2.59968.2428461-.44928.4169846-1.61536.4169846-2.2528 0-.63616-.3198461-1.29664-.5650615-1.56288 0-.45184.2689077-.7424.5875692-.7424.0983231 0 .1954615 0 .2949692.10624.4892462.52864.7605231 1.53728.7605231 2.30784 0 .2624 0 .52864-.0485692.7936 1.0306154-1.35168 2.3301384-3.10144 3.3358769-3.44832.1966462-.10496.3932923-.10496.5899385-.10496 1.8397077-.05248 1.5933077 1.74848 1.5933077 1.74848.9820461-1.21728 1.669123-1.66912 2.5741692-1.61664.9844154.05632 1.3279538.79616 1.3279538 1.38112-.0260615.68864-.4928 1.48224-1.3007077 1.50912-.7107692 0-1.1289384-.3712-1.3504615-1.05984-.4643692.1856-.6858923.5312-.7830308 1.21984-.1468923.87296.4655539 1.56416 1.2497693 1.56416 1.3492769 0 1.9380307-.63616 2.4284615-1.1136 1.6679385-1.69728 2.6026-3.4752 5.0073692-3.44448 1.4440462.02432 1.8148308 1.27232 2.0588616 1.80096l3.1664769-5.7792h1.9368461l-5.2502153 10.04672c-.0971385.21248-.3423539.61056-.3198462.928.0497539.50432.6385077.3712.4181692.3712m-33.6383384 1.40544c-2.1334923 0-4.0217693-1.5104-4.0703385-4.21504-.0248769-1.64352 1.2012-3.65824 3.4815846-4.2688.271277 0 .3707846.10624.3707846.26624 0 .10496-.0995076.2368-.3198461.34432-.6610154.26624-1.8160154 1.67168-1.8160154 2.96704 0 .98304.5662462 2.06976 1.5234154 2.30912.2665385.07808.5129385.05248.7581538.05248 2.381077 0 5.0547539-2.89024 7.9511385-7.2896-.4667385.0256-2.4568923.26368-2.9449538.87296-.2215231.18816-.3672308.07936-.4181693-.13056 0-.05376.0746308-.24064.1492616-.3456.7818461-.9536 3.1380461-1.16736 3.7031077-1.24544 2.1133538-3.50336 4.8083538-5.73696 5.5487384-5.89696-.0154-.00512-.0355384-.0128-.0544923-.01664-1.8882769-.47744-3.6059692-.87296-4.9540615-.87296-4.7360923 0-6.8447077 2.19904-6.7463846 4.21504.0497538.82176.6622 1.3504 1.5672461 1.16608.9832308-.18688 2.3562-1.19296 2.7021077-2.06848.0734462-.1856.2700923-.2112.3423538-.15872.1457077.13056.0971385.31872.0971385.31872-.1208308 1.03296-1.5944923 3.8976-4.1461538 3.8976-1.4227231 0-2.381077-1.43232-2.3526462-2.83776.0225077-2.624 2.5007231-5.27616 8.6097846-5.27616 1.1526308 0 2.4533385.10752 3.8760616.37248 1.6430615.31744 5.7418307 1.05984 9.076523 1.11232 1.226077 0 2.7992462.05376 4.0738923-.15744 1.3480924-.23936 1.0531231-.29184 1.5933077-.29184.4916154 0 .4916154.2112.4916154.42368 0 .84736-2.7483077 2.46528-5.0784461 2.46528-3.4330154 0-6.9975231-1.6832-8.8478923-2.22464.0722615.07296.1220153.18944.0651538.34176-.0236923.05376-.2689077.3456-.3696.42368-.4904308.47744-2.1583692 1.64608-3.9743846 4.96 1.4736615-.07936 3.1889846-.39808 3.1889846-.39808s-.0947692-.3456-.0947692-.63872c.0734461-1.1392.6858923-1.82912 1.4701077-1.696.4418615.07808.7380154.47744.7380154.9024 0 .448-.3210308 1.1136-.6373231 1.43232-.2215231.18432-.4679231.36992-.7628923.52864 0 .29312.3672307.52992.6870769.55808-.0734462.29056-.0497539.4224-.1717692.3968-.7368308 0-1.0318-.77056-1.0318-.77056-.9808616.18688-1.9356616.32-3.8736923.5312-4.8841693 8.53632-6.4052154 9.94176-9.3999231 9.94176m16.5324923-19.63264c-19.5769539 0-35.39986155 5.75232-35.39986155 12.83072 0 7.10528 15.82290765 12.85888 35.39986155 12.85888 19.5544461 0 35.4294769-5.7536 35.4294769-12.85888 0-7.0784-15.8750308-12.83072-35.4294769-12.83072m15.1938769 12.10368c-.8600308-.10752-1.9392154.68864-2.8241231 1.856-.4406769.5824-.9086 1.696-.9808615 2.35776-.0971385.66304.0722615 1.32864.2949692 1.51168.2203385.18688 1.2012.7424 2.7222462-.928.8600307-.92544 1.6928154-2.4384 1.6928154-2.4384l-.2689077-.07808c.5153077-1.03552.4181692-2.14784-.6361385-2.28096m-15.1938769 14.67008c-20.1657077 0-36.55367694-6.20288-36.55367694-13.94304 0-7.71584 16.38796924-13.9968 36.55367694-13.9968 20.2190154 0 36.5809231 6.28096 36.5809231 13.9968 0 7.74016-16.3619077 13.94304-36.5809231 13.94304m0-29.504c-21.0233692 0-38.05103078 6.97216-38.05103078 15.56096s17.02766158 15.53536 38.05103078 15.53536c21.0020461 0 38.0285231-6.94656 38.0285231-15.53536s-17.026477-15.56096-38.0285231-15.56096" fill="#fff" fill-rule="evenodd" mask="url(#a)" transform=""/></svg>

<?xml version="1.0" encoding="UTF-8"?>
<svg width="77px" height="32px" viewBox="0 0 77 32" version="1.1" xmlns="http://www.w3.org/2000/svg" xmlns:xlink="http://www.w3.org/1999/xlink">
    <!-- Generator: sketchtool 45.2 (43514) - http://www.bohemiancoding.com/sketch -->
    <title>A8A157B2-117A-4966-8FC7-B88BAE7367AD</title>
    <desc>Created with sketchtool.</desc>
    <defs>
        <polygon id="path-1" points="76.0791985 31.09632 0 31.09632 0 0.000512 76.0791985 0.000512 76.0791985 31.09632"></polygon>
    </defs>
    <g id="Page-1" stroke="none" stroke-width="1" fill="none" fill-rule="evenodd">
        <g id="PrimeReact-Showcase---Homepage" transform="translate(-1106.000000, -1121.000000)">
            <g id="homepage" transform="translate(301.000000, 70.000000)">
                <g id="brands" transform="translate(0.000000, 1019.000000)">
                    <g transform="translate(109.000000, 27.000000)" id="ford">
                        <g transform="translate(696.000000, 5.000000)">
                            <mask id="mask-2" fill="white">
                                <use xlink:href="#path-1"></use>
                            </mask>
                            <g id="Clip-2"></g>
                            <path d="M35.7999062,10.698752 C35.9456138,10.538752 36.1920138,10.062592 36.1434446,9.745152 C36.1197523,9.586432 36.0463062,9.399552 35.8733523,9.426432 C35.5037523,9.504512 35.2834138,9.692672 35.1862754,10.088192 C35.0618908,10.511872 35.1128292,10.804992 35.1862754,11.122432 C35.1862754,11.122432 35.4303062,11.149312 35.7999062,10.698752 M55.1565215,20.957952 C56.2120138,20.905472 58.14886,18.732032 58.6167831,18.200832 C58.7139215,18.067712 58.8868754,17.830912 58.9816446,17.830912 C59.0811523,17.830912 59.2777985,17.935872 59.2777985,18.093312 C59.2777985,18.200832 59.05746,18.598912 58.8868754,18.836992 C57.9036446,20.163072 56.28546,22.203392 54.4445677,22.255872 C53.5383369,22.255872 53.1947985,21.860352 53.0704138,21.091072 C52.6546138,21.487872 51.2307062,22.177792 49.7819215,22.177792 C48.5795369,22.150912 48.0879215,21.382912 47.8450754,20.773632 C47.6223677,20.269312 47.5264138,19.526912 47.6981831,18.784512 C47.0347985,19.155712 46.4211677,19.208192 45.5386292,19.182592 C44.5091985,19.155712 43.8706908,18.651392 43.5532138,17.354752 C42.3745215,19.684352 42.3247677,19.766272 41.1235677,22.203392 L39.0362754,22.203392 L41.7111369,17.298432 C42.05586,16.637952 42.2276292,16.108032 42.34846,15.549952 C42.4230908,15.232512 42.2027523,14.940672 41.8829062,14.915072 C41.5417369,14.915072 40.9766754,15.284992 40.4353062,15.843072 C40.4353062,15.843072 39.0599677,17.434112 38.0554138,19.048192 C37.0994292,20.586752 35.4551831,22.339072 33.6652292,22.339072 C32.3633369,22.339072 31.1846446,21.568512 30.9417985,20.083712 C30.9417985,20.083712 30.8174138,20.429312 29.6647831,21.143552 C29.56646,21.196032 29.3212446,21.354752 29.2477985,21.302272 C29.0262754,21.091072 28.9054446,20.824832 28.8805677,20.639232 C28.9540138,20.664832 29.1009062,20.534272 29.56646,20.136192 C30.47506,19.392512 30.6717062,18.811392 30.6717062,18.811392 C30.8932292,18.305792 31.2853369,17.512192 31.5554292,16.955392 C32.2898908,15.364352 33.5645369,13.747712 35.6506446,13.668352 C35.9953677,13.668352 36.0925062,13.827072 36.1659523,13.960192 C36.3637831,14.120192 36.2903369,14.436352 36.2903369,14.436352 C34.81786,14.674432 33.8109369,15.603712 33.1984908,16.504832 C32.8300754,17.088512 32.4391523,18.040832 32.3633369,18.732032 C32.2176292,19.924992 32.7341215,20.721152 33.4922754,20.905472 C34.9149985,21.143552 36.0925062,20.031232 37.0271677,18.305792 C37.2700138,17.856512 37.4441523,16.690432 37.4441523,16.052992 C37.4441523,15.416832 37.1243062,14.756352 36.8790908,14.490112 C36.8790908,14.038272 37.1479985,13.747712 37.46666,13.747712 C37.5649831,13.747712 37.6621215,13.747712 37.7616292,13.853952 C38.2508754,14.382592 38.5221523,15.391232 38.5221523,16.161792 C38.5221523,16.424192 38.5221523,16.690432 38.4735831,16.955392 C39.5041985,15.603712 40.8037215,13.853952 41.80946,13.507072 C42.0061062,13.402112 42.2027523,13.402112 42.3993985,13.402112 C44.2391062,13.349632 43.9927062,15.150592 43.9927062,15.150592 C44.9747523,13.933312 45.6618292,13.481472 46.5668754,13.533952 C47.5512908,13.590272 47.8948292,14.330112 47.8948292,14.915072 C47.8687677,15.603712 47.4020292,16.397312 46.5941215,16.424192 C45.8833523,16.424192 45.4651831,16.052992 45.24366,15.364352 C44.7792908,15.549952 44.5577677,15.895552 44.4606292,16.584192 C44.3137369,17.457152 44.9261831,18.148352 45.7103985,18.148352 C47.0596754,18.148352 47.6484292,17.512192 48.13886,17.034752 C49.8067985,15.337472 50.74146,13.559552 53.1462292,13.590272 C54.5902754,13.614592 54.96106,14.862592 55.2050908,15.391232 L58.3715677,9.612032 L60.3084138,9.612032 L55.0581985,19.658752 C54.96106,19.871232 54.7158446,20.269312 54.7383523,20.586752 C54.7881062,21.091072 55.37686,20.957952 55.1565215,20.957952 M21.5181831,22.363392 C19.3846908,22.363392 17.4964138,20.852992 17.4478446,18.148352 C17.4229677,16.504832 18.6490446,14.490112 20.9294292,13.879552 C21.2007062,13.879552 21.3002138,13.985792 21.3002138,14.145792 C21.3002138,14.250752 21.2007062,14.382592 20.9803677,14.490112 C20.3193523,14.756352 19.1643523,16.161792 19.1643523,17.457152 C19.1643523,18.440192 19.7305985,19.526912 20.6877677,19.766272 C20.9543062,19.844352 21.2007062,19.818752 21.4459215,19.818752 C23.8269985,19.818752 26.5006754,16.928512 29.39706,12.529152 C28.9303215,12.554752 26.9401677,12.792832 26.4521062,13.402112 C26.2305831,13.590272 26.0848754,13.481472 26.0339369,13.271552 C26.0339369,13.217792 26.1085677,13.030912 26.1831985,12.925952 C26.9650446,11.972352 29.3212446,11.758592 29.8863062,11.680512 C31.99966,8.177152 34.69466,5.943552 35.4350446,5.783552 C35.4196446,5.778432 35.3995062,5.770752 35.3805523,5.766912 C33.4922754,5.289472 31.7745831,4.893952 30.4264908,4.893952 C25.6903985,4.893952 23.5817831,7.092992 23.6801062,9.108992 C23.72986,9.930752 24.3423062,10.459392 25.2473523,10.275072 C26.2305831,10.088192 27.6035523,9.082112 27.94946,8.206592 C28.0229062,8.020992 28.2195523,7.995392 28.2918138,8.047872 C28.4375215,8.178432 28.3889523,8.366592 28.3889523,8.366592 C28.2681215,9.399552 26.79446,12.264192 24.2427985,12.264192 C22.8200754,12.264192 21.8617215,10.831872 21.8901523,9.426432 C21.91266,6.802432 24.3908754,4.150272 30.4999369,4.150272 C31.6525677,4.150272 32.9532754,4.257792 34.3759985,4.522752 C36.01906,4.840192 40.1178292,5.582592 43.4525215,5.635072 C44.6785985,5.635072 46.2517677,5.688832 47.5264138,5.477632 C48.8745062,5.238272 48.5795369,5.185792 49.1197215,5.185792 C49.6113369,5.185792 49.6113369,5.396992 49.6113369,5.609472 C49.6113369,6.456832 46.8630292,8.074752 44.5328908,8.074752 C41.0998754,8.074752 37.5353677,6.391552 35.6849985,5.850112 C35.75726,5.923072 35.8070138,6.039552 35.7501523,6.191872 C35.72646,6.245632 35.4812446,6.537472 35.3805523,6.615552 C34.8901215,7.092992 33.2221831,8.261632 31.4061677,11.575552 C32.8798292,11.496192 34.5951523,11.177472 34.5951523,11.177472 C34.5951523,11.177472 34.5003831,10.831872 34.5003831,10.538752 C34.5738292,9.399552 35.1862754,8.709632 35.9704908,8.842752 C36.4123523,8.920832 36.7085062,9.320192 36.7085062,9.745152 C36.7085062,10.193152 36.3874754,10.858752 36.0711831,11.177472 C35.84966,11.361792 35.60326,11.547392 35.3082908,11.706112 C35.3082908,11.999232 35.6755215,12.236032 35.9953677,12.264192 C35.9219215,12.554752 35.9456138,12.686592 35.8235985,12.660992 C35.0867677,12.660992 34.7917985,11.890432 34.7917985,11.890432 C33.8109369,12.077312 32.8561369,12.210432 30.9181062,12.421632 C26.0339369,20.957952 24.5128908,22.363392 21.5181831,22.363392 M38.0506754,2.730752 C18.4737215,2.730752 2.65081385,8.483072 2.65081385,15.561472 C2.65081385,22.666752 18.4737215,28.420352 38.0506754,28.420352 C57.6051215,28.420352 73.4801523,22.666752 73.4801523,15.561472 C73.4801523,8.483072 57.6051215,2.730752 38.0506754,2.730752 M53.2445523,14.834432 C52.3845215,14.726912 51.3053369,15.523072 50.4204292,16.690432 C49.9797523,17.272832 49.5118292,18.386432 49.4395677,19.048192 C49.3424292,19.711232 49.5118292,20.376832 49.7345369,20.559872 C49.9548754,20.746752 50.9357369,21.302272 52.4567831,19.631872 C53.3168138,18.706432 54.1495985,17.193472 54.1495985,17.193472 L53.8806908,17.115392 C54.3959985,16.079872 54.29886,14.967552 53.2445523,14.834432 M38.0506754,29.504512 C17.8849677,29.504512 1.49699846,23.301632 1.49699846,15.561472 C1.49699846,7.845632 17.8849677,1.564672 38.0506754,1.564672 C58.2696908,1.564672 74.6315985,7.845632 74.6315985,15.561472 C74.6315985,23.301632 58.2696908,29.504512 38.0506754,29.504512 M38.0506754,0.000512 C17.0273062,0.000512 -0.000355384615,6.972672 -0.000355384615,15.561472 C-0.000355384615,24.150272 17.0273062,31.096832 38.0506754,31.096832 C59.0527215,31.096832 76.0791985,24.150272 76.0791985,15.561472 C76.0791985,6.972672 59.0527215,0.000512 38.0506754,0.000512" id="Fill-1" fill="#FFFFFF" mask="url(#mask-2)"></path>
                        </g>
                    </g>
                </g>
            </g>
        </g>
    </g>
</svg>
